app-icon.svg

<svg xmlns="http://www.w3.org/2000/svg" width="32" height="32" viewBox="0 0 32 32">
  <g fill="none" fill-rule="evenodd">
    <path fill="#C0C3C7" d="M5.88078766,24.1616836 C5.39374403,23.5585843 4.95951814,22.911059 4.58514162,22.2261395 L2.08296362,22.9141789 C1.81656757,22.9874315 1.51870325,22.8490719 1.40747654,22.5805468 L1.02837842,21.665323 C0.921713253,21.4078105 1.03338861,21.0863791 1.27010639,20.951768 L3.52509227,19.6694551 C3.30873333,18.932721 3.15586408,18.168827 3.07281317,17.3841016 L0.496393204,17.0620492 C0.222242807,17.0277804 -2.84217094e-14,16.785965 -2.84217094e-14,16.4953156 L-2.84217094e-14,15.5046844 C-2.84217094e-14,15.2259549 0.22618103,14.9717274 0.496393204,14.9379508 L3.07281317,14.6158984 C3.15586408,13.831173 3.30873333,13.067279 3.52509227,12.3305449 L1.27010639,11.048232 C1.02993855,10.911659 0.917151709,10.603202 1.02837842,10.334677 L1.40747654,9.41945318 C1.51414171,9.16194068 1.8203944,9.01362078 2.08296362,9.08582106 L4.58514162,9.77386047 C4.95951814,9.08894096 5.39374403,8.44141572 5.88078766,7.83831635 L4.28631235,5.78827666 C4.11669044,5.57019135 4.13053034,5.24205266 4.33605052,5.03653249 L5.03653249,4.33605052 C5.23362402,4.13895898 5.57332419,4.11912709 5.78827666,4.28631235 L7.83831635,5.88078766 C8.44141572,5.39374403 9.08894096,4.95951814 9.77386047,4.58514162 L9.08582106,2.08296362 C9.01256849,1.81656757 9.15092814,1.51870325 9.41945318,1.40747654 L10.334677,1.02837842 C10.5921895,0.921713253 10.9136209,1.03338861 11.048232,1.27010639 L12.3305449,3.52509227 C13.067279,3.30873333 13.831173,3.15586408 14.6158984,3.07281317 L14.9379508,0.496393204 C14.9722196,0.222242807 15.214035,5.40012479e-13 15.5046844,5.40012479e-13 L16.4953156,5.40012479e-13 C16.7740451,5.40012479e-13 17.0282726,0.22618103 17.0620492,0.496393204 L17.3841016,3.07281317 C18.168827,3.15586408 18.932721,3.30873333 19.6694551,3.52509227 L20.951768,1.27010639 C21.088341,1.02993855 21.396798,0.917151709 21.665323,1.02837842 L22.5805468,1.40747654 C22.8380593,1.51414171 22.9863792,1.8203944 22.9141789,2.08296362 L22.2261395,4.58514162 C22.911059,4.95951814 23.5585843,5.39374403 24.1616836,5.88078766 L26.2117233,4.28631235 C26.4298086,4.11669044 26.7579473,4.13053034 26.9634675,4.33605052 L27.6639495,5.03653249 C27.861041,5.23362402 27.8808729,5.57332419 27.7136877,5.78827666 L26.1192123,7.83831635 C26.606256,8.44141572 27.0404819,9.08894096 27.4148584,9.77386047 L29.9170364,9.08582106 C30.1834324,9.01256849 30.4812967,9.15092814 30.5925235,9.41945318 L30.9716216,10.334677 C31.0782867,10.5921895 30.9666114,10.9136209 30.7298936,11.048232 L28.4749077,12.3305449 C28.6912667,13.067279 28.8441359,13.831173 28.9271868,14.6158984 L31.5036068,14.9379508 C31.7777572,14.9722196 32,15.214035 32,15.5046844 L32,16.4953156 C32,16.7740451 31.773819,17.0282726 31.5036068,17.0620492 L28.9271868,17.3841016 C28.8441359,18.168827 28.6912667,18.932721 28.4749077,19.6694551 L30.7298936,20.951768 C30.9700615,21.088341 31.0828483,21.396798 30.9716216,21.665323 L30.5925235,22.5805468 C30.4858583,22.8380593 30.1796056,22.9863792 29.9170364,22.9141789 L27.4148584,22.2261395 C27.0404819,22.911059 26.606256,23.5585843 26.1192123,24.1616836 L27.7136877,26.2117233 C27.8833096,26.4298086 27.8694697,26.7579473 27.6639495,26.9634675 L26.9634675,27.6639495 C26.766376,27.861041 26.4266758,27.8808729 26.2117233,27.7136877 L24.1616836,26.1192123 C23.5585843,26.606256 22.911059,27.0404819 22.2261395,27.4148584 L22.9141789,29.9170364 C22.9874315,30.1834324 22.8490719,30.4812967 22.5805468,30.5925235 L21.665323,30.9716216 C21.4078105,31.0782867 21.0863791,30.9666114 20.951768,30.7298936 L19.6694551,28.4749077 C18.932721,28.6912667 18.168827,28.8441359 17.3841016,28.9271868 L17.0620492,31.5036068 C17.0277804,31.7777572 16.785965,32 16.4953156,32 L15.5046844,32 C15.2259549,32 14.9717274,31.773819 14.9379508,31.5036068 L14.6158984,28.9271868 C13.831173,28.8441359 13.067279,28.6912667 12.3305449,28.4749077 L11.048232,30.7298936 C10.911659,30.9700615 10.603202,31.0828483 10.334677,30.9716216 L9.41945318,30.5925235 C9.16194068,30.4858583 9.01362078,30.1796056 9.08582106,29.9170364 L9.77386047,27.4148584 C9.08894096,27.0404819 8.44141572,26.606256 7.83831635,26.1192123 L5.78827666,27.7136877 C5.57019135,27.8833096 5.24205266,27.8694697 5.03653249,27.6639495 L4.33605052,26.9634675 C4.13895898,26.766376 4.11912709,26.4266758 4.28631235,26.2117233 L5.88078766,24.1616836 Z M5.99973201,16 C5.99973201,21.522648 10.477352,26.000268 16,26.000268 C21.522648,26.000268 26.000268,21.522648 26.000268,16 C26.000268,10.477352 21.522648,5.99973201 16,5.99973201 C10.477352,5.99973201 5.99973201,10.477352 5.99973201,16 Z"/>
    <path fill="#BFC3C7" d="M16,13 C14.34325,13 13,14.34325 13,16 C13,17.65675 14.34325,19 16,19 C17.65675,19 19,17.65675 19,16 C19,14.34325 17.65675,13 16,13 Z M16,17 C16.5522847,17 17,16.5522847 17,16 C17,15.4477153 16.5522847,15 16,15 C15.4477153,15 15,15.4477153 15,16 C15,16.5522847 15.4477153,17 16,17 Z"/>
    <g fill="#BFC3C7" transform="rotate(30 -1.928 23.196)">
      <polygon points="8.863 10.095 8.306 18.73 10.302 18.859 10.859 10.224"/>
      <polygon points="12.233 7.649 19.603 2.451 18.45 .817 11.081 6.014"/>
      <polygon points="8.685 5.933 1.221 1.005 .119 2.674 7.583 7.602"/>
    </g>
  </g>
</svg>

<svg xmlns="http://www.w3.org/2000/svg" viewBox="0 0 32 32"><g fill="none" fill-rule="evenodd"><path fill="#C0C3C7" d="M5.88 24.162a13.023 13.023 0 01-1.295-1.936l-2.502.688a.575.575 0 01-.676-.333l-.379-.916a.587.587 0 01.242-.713l2.255-1.283a12.94 12.94 0 01-.452-2.285l-2.577-.322A.575.575 0 010 16.495v-.99c0-.279.226-.533.496-.567l2.577-.322a12.94 12.94 0 01.452-2.285L1.27 11.048a.575.575 0 01-.242-.713l.38-.916a.587.587 0 01.675-.333l2.502.688c.375-.685.809-1.333 1.296-1.936l-1.595-2.05a.575.575 0 01.05-.751l.7-.7a.587.587 0 01.752-.05l2.05 1.594c.603-.487 1.25-.921 1.936-1.296l-.688-2.502a.575.575 0 01.333-.676l.916-.379a.587.587 0 01.713.242l1.283 2.255c.736-.216 1.5-.37 2.285-.452l.322-2.577A.575.575 0 0115.505 0h.99c.279 0 .533.226.567.496l.322 2.577a12.94 12.94 0 012.285.452l1.283-2.255a.575.575 0 01.713-.242l.916.38a.587.587 0 01.333.675l-.688 2.502c.685.375 1.333.809 1.936 1.296l2.05-1.595a.575.575 0 01.751.05l.7.7a.587.587 0 01.05.752l-1.594 2.05c.487.603.921 1.25 1.296 1.936l2.502-.688a.575.575 0 01.676.333l.379.916a.587.587 0 01-.242.713l-2.255 1.283c.216.736.37 1.5.452 2.285l2.577.322a.575.575 0 01.496.567v.99a.587.587 0 01-.496.567l-2.577.322a12.94 12.94 0 01-.452 2.285l2.255 1.283c.24.136.353.445.242.713l-.38.916a.587.587 0 01-.675.333l-2.502-.688a13.023 13.023 0 01-1.296 1.936l1.595 2.05a.575.575 0 01-.05.751l-.7.7a.587.587 0 01-.752.05l-2.05-1.594c-.603.487-1.25.921-1.936 1.296l.688 2.502a.575.575 0 01-.333.676l-.916.379a.587.587 0 01-.713-.242l-1.283-2.255c-.736.216-1.5.37-2.285.452l-.322 2.577a.575.575 0 01-.567.496h-.99a.587.587 0 01-.567-.496l-.322-2.577a12.94 12.94 0 01-2.285-.452l-1.283 2.255a.575.575 0 01-.713.242l-.916-.38a.587.587 0 01-.333-.675l.688-2.502a13.023 13.023 0 01-1.936-1.296l-2.05 1.595a.575.575 0 01-.751-.05l-.7-.7a.587.587 0 01-.05-.752l1.594-2.05zM6 16c0 5.523 4.477 10 10 10s10-4.477 10-10S21.523 6 16 6 6 10.477 6 16z"/><path fill="#BFC3C7" d="M16 13a3 3 0 100 6 3 3 0 000-6zm0 4a1 1 0 100-2 1 1 0 000 2z"/><g fill="#BFC3C7"><path d="M13.968 17.246l-4.8 7.2 1.664 1.109 4.8-7.2zM18.11 16.812l8.98-.816-.18-1.992-8.98.816zM15.895 13.552l-4-8-1.79.895 4 8z"/></g></g></svg>
